flaticon/baby/duckling.svg

<svg xmlns="http://www.w3.org/2000/svg" width="32" height="32" viewBox="0 0 24 24">
    <path d="M 23.445312 5.039062 C 23.316406 4.832031 23.089844 4.707031 22.84375 4.707031 L 18.292969 4.707031 C 17.84375 2.039062 15.523438 0 12.730469 0 C 9.617188 0 7.082031 2.53125 7.082031 5.648438 C 7.082031 8.320312 9.03125 9.867188 9.765625 10.449219 C 9.816406 10.492188 9.863281 10.527344 9.902344 10.558594 C 9.882812 10.871094 9.792969 11.5625 9.355469 11.871094 C 9.039062 12.089844 8.5625 12.089844 7.929688 11.871094 C 7.375 11.675781 6.851562 11.335938 6.371094 10.859375 L 3.574219 8.0625 C 3.375 7.863281 3.101562 7.757812 2.8125 7.777344 C 2.527344 7.800781 2.265625 7.945312 2.09375 8.175781 C 1.367188 9.15625 0.195312 11.238281 0.496094 14.128906 C 0.496094 14.207031 0.546875 16.128906 1.265625 18.273438 C 2.238281 21.171875 3.976562 23.066406 6.292969 23.753906 C 6.855469 23.917969 7.472656 24 8.183594 24 L 11.410156 24 C 12.855469 24 14.25 23.582031 15.445312 22.792969 L 15.566406 22.710938 C 18.925781 20.453125 20.140625 16.136719 18.394531 12.671875 C 17.875 11.644531 17.160156 10.824219 16.269531 10.230469 C 16.445312 10.007812 16.660156 9.726562 16.878906 9.410156 L 19.390625 9.410156 C 19.949219 9.410156 20.464844 9.269531 20.882812 8.996094 C 22.152344 8.179688 23.054688 6.59375 23.480469 5.722656 C 23.589844 5.503906 23.574219 5.246094 23.445312 5.039062 Z M 17.554688 13.09375 C 19.085938 16.136719 18.007812 19.9375 15.027344 21.941406 L 14.929688 22.007812 C 13.886719 22.695312 12.667969 23.058594 11.410156 23.058594 L 8.183594 23.058594 C 7.566406 23.058594 7.035156 22.988281 6.558594 22.851562 C 1.664062 21.402344 1.4375 14.179688 1.433594 14.070312 C 1.164062 11.460938 2.207031 9.605469 2.851562 8.734375 L 2.472656 8.453125 L 2.910156 8.726562 L 5.707031 11.523438 C 6.285156 12.105469 6.929688 12.519531 7.617188 12.757812 C 8.554688 13.085938 9.316406 13.042969 9.894531 12.640625 C 10.738281 12.046875 10.84375 10.90625 10.847656 10.449219 C 10.851562 10.261719 10.777344 10.085938 10.644531 9.957031 C 10.582031 9.898438 10.480469 9.816406 10.351562 9.714844 C 9.652344 9.160156 8.023438 7.863281 8.023438 5.648438 C 8.023438 3.050781 10.132812 0.941406 12.730469 0.941406 C 15.148438 0.941406 17.144531 2.773438 17.40625 5.125 L 17.414062 5.21875 C 17.425781 5.359375 17.433594 5.503906 17.433594 5.648438 C 17.433594 5.792969 17.417969 5.945312 17.390625 6.101562 C 17.386719 6.128906 17.382812 6.15625 17.375 6.183594 C 17.3125 6.515625 17.199219 6.863281 17.042969 7.214844 C 17.042969 7.222656 17.039062 7.230469 17.035156 7.234375 C 16.878906 7.597656 16.683594 7.960938 16.464844 8.320312 C 16.445312 8.347656 16.425781 8.378906 16.40625 8.410156 C 16.078125 8.933594 15.710938 9.4375 15.347656 9.867188 C 15.222656 10.019531 15.167969 10.214844 15.203125 10.40625 C 15.234375 10.605469 15.355469 10.773438 15.527344 10.878906 C 16.386719 11.386719 17.066406 12.128906 17.554688 13.09375 Z M 20.375 8.207031 C 20.105469 8.378906 19.765625 8.46875 19.390625 8.46875 L 17.472656 8.46875 C 17.539062 8.347656 17.609375 8.222656 17.671875 8.097656 C 17.679688 8.082031 17.6875 8.070312 17.691406 8.058594 C 17.742188 7.957031 17.792969 7.855469 17.839844 7.753906 C 17.851562 7.722656 17.867188 7.695312 17.878906 7.664062 C 17.917969 7.582031 17.949219 7.5 17.984375 7.417969 C 18 7.378906 18.015625 7.339844 18.03125 7.300781 C 18.058594 7.234375 18.082031 7.164062 18.105469 7.09375 C 18.121094 7.046875 18.140625 7 18.152344 6.953125 C 18.167969 6.917969 18.175781 6.878906 18.1875 6.839844 C 18.234375 6.671875 18.277344 6.507812 18.308594 6.34375 C 18.3125 6.328125 18.316406 6.3125 18.316406 6.296875 C 18.332031 6.214844 18.339844 6.136719 18.351562 6.058594 C 18.351562 6.027344 18.359375 5.996094 18.363281 5.964844 C 18.371094 5.859375 18.375 5.75 18.375 5.648438 L 22.464844 5.648438 C 22.074219 6.382812 21.324219 7.59375 20.375 8.207031 Z M 20.375 8.207031"/>
    <path d="M16.023438 4.707031C16.023438 3.410156 14.96875 2.351562 13.671875 2.351562 12.375 2.351562 11.316406 3.410156 11.316406 4.707031 11.316406 6.003906 12.375 7.058594 13.671875 7.058594 14.96875 7.058594 16.023438 6.003906 16.023438 4.707031zM12.257812 4.707031C12.257812 3.925781 12.894531 3.292969 13.671875 3.292969 14.320312 3.292969 14.863281 3.738281 15.027344 4.335938 14.902344 4.273438 14.761719 4.234375 14.613281 4.234375 14.09375 4.234375 13.671875 4.65625 13.671875 5.175781 13.671875 5.546875 13.882812 5.859375 14.191406 6.015625 14.03125 6.078125 13.855469 6.117188 13.671875 6.117188 12.894531 6.117188 12.257812 5.484375 12.257812 4.707031zM12.671875 13.90625C11.917969 13.5 10.992188 13.570312 9.914062 14.117188 8.816406 14.671875 7.558594 15.105469 6.066406 15.4375L5.886719 15.476562C5.667969 15.523438 5.484375 15.664062 5.382812 15.859375 5.277344 16.054688 5.265625 16.285156 5.347656 16.488281 5.742188 17.476562 7.261719 20.695312 10.355469 20.710938 10.394531 20.714844 10.46875 20.71875 10.566406 20.71875 11.027344 20.71875 12.058594 20.625 12.90625 19.863281 13.726562 19.125 14.140625 17.984375 14.140625 16.476562L14.140625 16.425781C14.128906 16.351562 13.929688 14.589844 12.671875 13.90625zM12.285156 19.15625C11.496094 19.867188 10.433594 19.773438 10.425781 19.773438L10.378906 19.769531C8.039062 19.769531 6.75 17.367188 6.308594 16.347656 7.863281 16 9.179688 15.542969 10.339844 14.953125 11.121094 14.558594 11.753906 14.480469 12.21875 14.734375 12.984375 15.144531 13.175781 16.332031 13.199219 16.503906 13.195312 17.714844 12.886719 18.609375 12.285156 19.15625zM12.285156 19.15625"/>
</svg>

<svg xmlns="http://www.w3.org/2000/svg" width="32" height="32" viewBox="0 0 24 24">
    <path d="M23.445 5.04a.706.706 0 0 0-.601-.333h-4.551C17.843 2.039 15.523 0 12.73 0a5.654 5.654 0 0 0-5.648 5.648c0 2.672 1.95 4.22 2.684 4.801.05.043.097.078.136.11-.02.312-.109 1.004-.547 1.312-.316.219-.793.219-1.425 0-.555-.195-1.078-.535-1.559-1.012L3.574 8.063a.977.977 0 0 0-.761-.286.998.998 0 0 0-.72.399 8.5 8.5 0 0 0-1.597 5.953c0 .078.05 2 .77 4.144.972 2.899 2.71 4.793 5.027 5.48.562.165 1.18.247 1.89.247h3.227a7.3 7.3 0 0 0 4.035-1.207l.121-.082c3.36-2.258 4.575-6.574 2.829-10.04-.52-1.026-1.235-1.847-2.125-2.44.175-.223.39-.504.609-.82h2.512c.558 0 1.074-.141 1.492-.415 1.27-.816 2.172-2.402 2.597-3.273a.7.7 0 0 0-.035-.684zm-5.89 8.054c1.53 3.043.453 6.844-2.528 8.847l-.097.067a6.379 6.379 0 0 1-3.52 1.05H8.184c-.618 0-1.149-.07-1.625-.206-4.895-1.45-5.122-8.672-5.125-8.782-.27-2.61.773-4.465 1.418-5.336l-.38-.28.438.273 2.797 2.796c.578.582 1.223.997 1.91 1.235.938.328 1.7.285 2.278-.117.843-.594.949-1.735.953-2.192a.663.663 0 0 0-.203-.492 5.115 5.115 0 0 0-.293-.242c-.7-.555-2.329-1.852-2.329-4.067A4.71 4.71 0 0 1 12.73.941a4.711 4.711 0 0 1 4.676 4.184l.008.094c.012.14.02.285.02.43a2.648 2.648 0 0 1-.059.535 4.71 4.71 0 0 1-.34 1.05 8.784 8.784 0 0 1-.57 1.086c-.02.028-.04.059-.059.09a12.95 12.95 0 0 1-1.058 1.457.68.68 0 0 0 .18 1.012c.859.508 1.538 1.25 2.027 2.215zm2.82-4.887c-.27.172-.61.262-.984.262h-1.918c.066-.121.136-.246.199-.371l.02-.04c.05-.101.101-.203.148-.304.012-.031.027-.059.039-.09.039-.082.07-.164.105-.246l.047-.117c.028-.067.051-.137.074-.207.016-.047.036-.094.047-.14.016-.036.024-.075.035-.114a6.1 6.1 0 0 0 .122-.496c.003-.016.007-.032.007-.047.016-.082.024-.16.036-.238 0-.032.007-.063.011-.094.008-.106.012-.215.012-.317h4.09c-.39.735-1.14 1.946-2.09 2.559zm0 0"/>
    <path d="M16.023 4.707a2.357 2.357 0 0 0-2.351-2.355 2.36 2.36 0 0 0-2.356 2.355 2.354 2.354 0 0 0 4.707 0zm-3.765 0c0-.781.637-1.414 1.414-1.414.648 0 1.191.445 1.355 1.043a.926.926 0 0 0-.414-.102.942.942 0 0 0-.422 1.782 1.43 1.43 0 0 1-.52.101 1.415 1.415 0 0 1-1.413-1.41zm0 0M12.672 13.906c-.754-.406-1.68-.336-2.758.211-1.098.555-2.355.988-3.848 1.32l-.18.04a.741.741 0 0 0-.503.382.74.74 0 0 0-.035.63c.394.988 1.914 4.206 5.007 4.222.04.004.114.008.211.008.461 0 1.493-.094 2.34-.856.82-.738 1.235-1.879 1.235-3.386v-.051c-.012-.074-.211-1.836-1.47-2.52zm-.387 5.25c-.789.711-1.851.617-1.86.617l-.046-.003c-2.34 0-3.629-2.403-4.07-3.422 1.554-.348 2.87-.805 4.03-1.395.782-.394 1.415-.473 1.88-.219.765.41.957 1.598.98 1.77-.004 1.21-.312 2.105-.914 2.652zm0 0"/>
</svg>
